X:1
T: Honourable Mrs Maule's Reel
C:R. Mackintosh
R:Reel
Q: 232
K:A
M:4/4
L:1/8
|:e|a2 ed cA ec|Bc de fB bg|a2 ed cA ec|df ed cA Ae|
a2 ed cA ec|Bc de fB bg|a2 ed cA ec|df ed cA Ae|
c1/2B1/2A EA cA ec|Bc de fB ed|c1/2B1/2A EA cA ec|dB ed cA Ae|
c1/2B1/2A EA cA ec|Bc de fB ed|ce fd ea bg|af ed cA A:|
